<?xml version="1.0" encoding="UTF-8"?>
<map version="1.10" tiledversion="1.11.0" orientation="orthogonal" renderorder="right-down"
  width="100" height="20" tilewidth="16" tileheight="16" infinite="0" nextlayerid="7"
  nextobjectid="1">
  <tileset firstgid="1" source="../tilesets/tileset_floor.tmx" />
  <tileset firstgid="573" source="../tilesets/tileset_water.tmx" />
  <tileset firstgid="1049" source="../tilesets/tileset_nature.tmx" />
  <tileset firstgid="1553" source="../tilesets/tileset_house.tmx" />
  <layer id="2" name="collision" width="100" height="20" visible="0">
    <data encoding="csv">
      551,551,551,551,551,551,551,551,551,551,551,551,551,551,551,551,551,551,551,551,551,551,551,551,551,551,551,551,551,551,551,551,551,551,551,551,551,551,551,551,551,551,551,551,551,551,551,551,551,551,551,551,551,551,551,551,551,551,551,551,551,551,551,551,551,551,551,551,551,551,551,551,551,551,551,551,551,551,551,551,551,551,551,551,551,551,551,551,551,551,551,551,551,551,551,551,551,551,551,551,
      551,551,551,551,551,551,551,551,551,551,551,551,551,551,551,551,551,551,551,551,551,551,551,551,551,551,551,551,0,0,551,551,0,0,0,0,0,0,0,0,0,0,0,0,0,0,0,0,0,0,0,0,0,0,0,0,551,551,551,551,0,0,551,0,0,0,551,0,0,0,551,0,0,0,0,0,551,551,0,0,0,0,551,551,551,551,551,551,551,551,0,0,0,0,0,0,0,0,551,551,
      551,551,551,551,551,551,551,551,551,551,551,551,551,551,551,551,551,551,551,551,551,551,551,551,551,551,0,0,0,0,551,551,0,0,0,0,0,0,0,0,0,0,0,0,0,0,0,0,0,0,0,0,0,0,0,0,0,551,551,551,0,0,551,0,0,0,551,0,0,0,0,0,0,0,0,0,0,551,0,0,0,0,551,551,551,551,0,0,0,0,0,0,0,0,0,0,0,0,0,551,
      551,551,551,551,551,551,551,551,551,551,551,551,551,551,551,551,551,551,551,551,551,551,551,551,551,551,0,0,0,0,0,0,0,0,0,0,0,0,0,0,0,0,0,0,0,0,0,0,0,0,0,0,0,0,0,0,0,0,0,551,0,0,0,0,0,0,0,0,0,551,551,0,0,551,0,0,0,551,551,0,0,0,551,551,551,0,0,0,0,0,0,0,0,0,0,0,0,0,0,551,
      551,551,551,551,551,551,551,551,551,0,0,0,0,0,0,551,551,551,551,551,551,551,551,551,551,551,551,0,0,0,0,0,0,0,0,0,0,0,0,0,551,551,551,551,0,0,0,0,0,0,0,0,0,0,0,0,0,551,551,551,0,0,551,0,0,0,551,0,0,0,0,0,0,551,551,0,0,0,551,0,0,0,551,551,551,0,0,0,0,0,0,0,0,0,0,0,0,0,0,551,
      551,551,551,551,551,551,551,551,0,0,0,0,0,0,0,0,551,551,551,551,551,551,551,551,551,551,551,0,0,0,0,0,0,0,0,0,0,0,0,0,551,551,551,551,551,0,0,0,0,0,0,0,0,0,0,0,0,0,0,551,0,0,551,0,0,0,551,0,0,551,551,0,0,551,551,0,0,0,551,0,0,0,0,0,0,0,0,0,0,0,0,0,0,0,0,0,0,0,0,551,
      551,551,551,551,551,551,551,0,0,0,0,0,0,0,0,0,0,551,551,551,551,551,551,551,551,0,0,0,0,0,0,0,0,0,0,0,0,0,0,551,551,551,551,551,551,0,0,0,0,0,0,0,0,0,0,0,0,551,551,551,0,0,0,0,0,0,0,0,0,0,0,0,0,551,0,0,0,551,0,0,0,0,551,551,551,0,0,0,0,0,0,0,0,0,0,0,0,0,0,551,
      551,551,551,551,551,551,0,0,0,0,0,0,0,0,0,0,0,551,551,551,551,551,551,551,0,0,0,0,0,0,0,0,0,0,0,0,0,0,0,0,0,0,0,0,0,0,0,0,0,0,0,0,0,0,0,0,0,0,0,551,551,551,551,551,0,551,551,551,551,0,0,0,551,551,0,0,0,551,551,0,0,0,551,551,551,0,0,0,0,0,0,0,0,0,0,0,0,0,0,551,
      551,551,551,551,551,551,0,0,0,0,0,0,0,0,0,0,0,0,0,0,0,0,0,0,0,0,0,0,0,0,551,551,551,0,0,0,0,0,0,0,0,0,0,0,0,0,0,0,0,0,0,0,0,0,0,0,0,0,0,0,0,0,0,0,0,0,0,0,551,551,551,551,551,0,0,0,0,551,551,0,0,551,551,551,551,0,0,0,0,0,0,0,0,0,0,0,0,0,0,551,
      551,551,551,551,551,551,0,0,0,0,0,0,0,0,0,0,0,0,0,0,0,0,0,0,0,0,0,0,0,551,551,551,551,0,0,0,0,0,0,0,0,0,0,0,0,0,0,0,0,0,0,0,0,0,0,0,0,551,0,0,0,0,0,0,0,0,0,0,0,0,0,0,551,0,0,0,0,551,0,0,0,551,551,551,551,0,0,0,0,0,0,0,0,0,0,0,0,0,0,551,
      551,551,551,551,551,551,0,0,0,0,0,0,0,0,0,0,0,0,551,551,551,551,0,0,0,0,0,0,0,551,551,551,551,0,0,0,0,0,0,0,0,0,0,0,0,0,0,0,0,0,0,0,0,0,0,0,0,0,0,0,0,0,0,0,0,0,0,0,0,0,0,551,551,0,0,0,0,551,551,0,0,0,551,551,551,0,0,0,0,0,0,0,0,0,0,0,0,0,0,551,
      551,551,551,551,551,551,551,0,0,0,0,0,0,0,0,0,551,551,551,551,551,551,551,0,0,0,0,0,0,0,0,0,0,0,0,0,0,0,0,0,0,0,0,0,0,0,0,0,0,0,0,0,0,0,0,0,0,0,0,0,0,0,0,0,0,0,0,0,0,0,0,551,551,0,0,0,0,551,551,0,0,0,551,551,551,0,0,0,0,0,0,0,0,0,0,0,0,0,0,551,
      551,551,551,551,551,551,551,551,0,0,0,0,0,0,0,551,551,551,551,551,551,551,551,551,0,0,0,0,0,0,0,0,0,0,0,0,0,0,0,0,0,0,0,0,0,0,0,0,0,0,0,0,0,0,0,551,0,0,0,0,0,0,0,0,551,551,0,0,0,0,0,551,0,0,0,0,0,0,551,551,0,0,551,551,551,0,0,0,0,0,0,0,0,0,0,0,0,0,0,551,
      551,551,551,551,551,551,551,551,551,551,551,551,551,551,551,551,551,551,551,551,551,551,551,551,0,0,0,0,0,0,0,0,0,0,0,0,0,0,0,0,0,0,0,0,0,0,0,0,0,0,0,0,0,0,0,0,0,0,0,0,0,0,0,0,551,551,551,0,0,0,0,551,551,0,0,0,0,0,0,0,0,0,551,551,551,0,0,0,0,0,0,0,0,0,0,0,0,0,0,551,
      551,551,551,551,551,551,551,551,551,551,551,551,551,551,551,551,551,551,551,551,551,551,551,551,0,0,0,0,0,0,0,0,0,0,0,0,0,0,551,551,0,0,0,0,0,0,0,0,0,0,0,0,0,0,0,0,0,0,0,0,0,0,0,551,551,551,551,0,0,0,0,0,551,0,0,0,0,0,0,0,0,0,551,551,551,0,0,0,0,0,0,0,0,0,0,0,0,0,0,551,
      551,551,551,551,551,551,551,551,551,551,551,551,551,551,551,551,551,551,551,551,551,551,551,551,551,551,0,0,0,0,0,0,0,0,0,0,0,0,551,551,0,0,0,0,0,0,0,0,0,0,0,0,0,0,0,0,0,0,0,0,0,0,0,551,551,551,551,0,0,0,0,0,0,551,551,551,551,0,0,0,0,0,551,551,551,551,0,0,0,0,0,0,0,0,0,0,0,0,0,551,
      551,551,551,551,551,551,551,551,551,551,551,551,551,551,551,551,551,551,551,551,551,551,551,551,551,551,0,0,0,0,0,0,0,0,0,0,0,0,0,0,0,0,0,0,0,0,0,0,0,0,0,0,0,0,0,0,0,0,0,0,0,0,0,0,0,0,551,551,0,0,0,0,0,0,0,551,551,551,0,0,0,551,551,551,551,551,0,0,0,0,0,0,0,0,0,0,0,0,551,551,
      551,551,551,551,551,551,551,551,551,551,551,551,551,551,551,551,551,551,551,551,551,551,551,551,551,551,0,0,0,0,0,0,0,0,0,0,0,0,0,0,0,0,551,551,551,551,0,551,551,551,551,551,551,551,551,551,551,551,551,551,0,0,0,0,0,0,551,551,551,0,0,0,0,0,0,0,0,0,551,0,0,551,551,551,551,551,551,0,0,0,0,0,0,0,0,0,0,551,551,551,
      551,551,551,551,551,551,551,551,551,551,551,551,551,551,551,551,551,551,551,551,551,551,551,551,551,551,551,0,0,0,0,0,0,0,0,0,0,0,0,0,0,551,551,551,551,551,0,551,551,551,551,551,551,551,551,551,551,551,551,551,551,0,0,0,0,0,0,551,551,0,0,0,0,0,0,0,0,0,551,551,551,551,551,551,551,551,551,551,551,0,0,0,0,0,0,0,0,551,551,551,
      551,551,551,551,551,551,551,551,551,551,551,551,551,551,551,551,551,551,551,551,551,551,551,551,551,551,551,551,551,551,551,551,551,551,551,551,551,551,551,551,551,551,551,551,551,551,551,551,551,551,551,551,551,551,551,551,551,551,551,551,551,551,551,551,551,551,551,551,551,551,551,551,551,551,551,551,551,551,551,551,551,551,551,551,551,551,551,551,551,551,551,551,551,551,551,551,551,551,551,551
    </data>
  </layer>
  <layer id="1" name="floor" width="100" height="20">
    <data encoding="csv">
      0,0,0,0,0,0,0,0,0,0,0,0,0,0,0,0,0,0,0,0,0,0,0,0,0,0,0,265,265,265,265,265,265,265,265,265,265,265,265,265,265,265,881,881,881,881,881,881,881,881,881,881,881,881,881,881,881,881,881,881,881,881,265,265,265,265,265,265,265,265,881,881,881,881,881,881,881,881,881,881,881,881,741,803,770,770,770,770,770,774,798,798,798,798,798,799,881,881,881,881,
      0,0,0,0,0,0,0,0,0,0,0,0,0,0,0,0,0,0,0,0,0,0,0,0,0,265,265,265,265,265,265,265,265,265,265,265,265,265,265,265,265,265,881,881,881,881,881,881,881,881,881,881,881,881,881,881,881,881,881,881,881,881,265,265,265,265,265,265,265,265,881,881,881,881,881,881,881,881,881,881,881,881,769,602,774,798,798,798,798,799,881,881,881,881,881,881,881,881,881,881,
      0,0,0,0,0,0,0,0,0,0,0,0,0,0,0,0,0,0,0,0,0,0,0,0,0,265,265,265,265,265,265,265,265,265,265,265,265,265,265,265,265,265,881,881,881,881,881,881,881,881,881,881,881,881,881,881,881,881,881,881,881,881,265,265,265,265,265,265,265,265,881,881,881,881,881,881,881,881,881,881,881,881,769,602,771,881,881,881,881,881,881,881,881,881,881,881,881,881,881,881,
      0,0,0,0,0,0,0,0,0,265,265,265,265,265,265,0,0,0,0,0,0,0,0,0,0,265,265,265,265,265,265,265,265,265,265,265,265,265,265,265,265,265,881,881,881,881,881,881,881,881,881,881,881,881,881,881,881,881,881,881,881,881,265,265,265,265,265,265,265,265,881,881,881,881,881,881,881,881,881,881,881,881,769,602,771,881,881,881,881,881,881,881,881,881,881,881,881,881,881,881,
      0,0,0,0,0,0,0,0,265,265,265,265,265,265,265,265,265,0,0,0,0,0,0,0,265,265,265,265,265,265,265,265,265,265,265,265,265,265,265,265,265,265,881,881,881,881,881,881,881,881,881,881,881,881,881,881,881,881,881,881,881,881,265,265,265,265,265,265,265,265,881,881,881,881,881,881,881,881,881,881,881,881,769,602,771,881,881,881,881,881,881,881,881,881,881,881,881,881,881,881,
      0,0,0,0,0,0,0,265,265,265,265,265,265,265,265,265,265,265,0,0,0,0,0,0,265,265,265,265,265,265,265,265,265,265,265,265,265,265,265,265,265,265,881,881,881,881,881,881,881,881,881,881,881,881,881,881,881,881,881,881,881,881,265,265,265,265,265,265,265,265,881,881,881,881,881,881,881,881,881,881,881,881,769,602,771,881,881,881,881,881,881,881,881,881,881,881,881,881,881,881,
      0,0,0,0,0,265,265,265,265,265,265,265,265,265,265,265,265,265,0,0,0,0,0,265,265,265,265,265,265,265,265,265,265,265,265,265,265,265,265,265,265,265,881,881,881,881,881,881,881,881,881,881,881,881,881,881,881,881,881,881,881,881,265,265,265,265,265,265,265,265,881,881,881,881,881,881,881,881,881,881,881,881,769,602,771,881,881,881,881,265,155,156,156,156,157,265,881,881,881,881,
      0,0,0,0,0,265,265,265,265,265,265,265,265,265,265,265,265,265,265,265,265,265,265,265,265,265,265,265,265,265,265,265,265,265,265,265,265,265,265,265,265,265,881,881,881,881,881,881,881,881,881,881,881,881,881,881,881,881,881,881,881,881,265,265,265,265,265,265,265,265,881,881,881,881,881,881,881,881,881,881,881,881,769,602,771,881,881,881,881,155,178,178,178,178,178,157,881,881,881,881,
      0,0,0,0,0,265,265,265,265,265,265,265,265,265,265,265,265,265,265,265,265,265,265,265,265,265,265,265,265,265,265,265,265,265,265,265,265,265,265,265,265,265,881,881,881,881,881,881,881,881,881,881,881,881,881,881,881,881,881,881,881,881,265,265,265,265,265,265,265,265,881,881,881,881,881,881,881,881,881,881,881,881,769,602,771,881,881,881,881,177,178,178,178,178,178,179,881,881,881,881,
      0,0,0,0,0,265,265,265,265,265,265,265,265,265,265,265,265,265,265,265,265,265,265,265,265,265,265,265,265,265,265,265,265,265,265,265,265,265,265,265,265,265,881,881,881,881,881,881,881,881,881,881,881,881,881,881,881,881,881,881,881,881,265,265,265,265,265,265,265,265,881,881,881,881,881,881,881,881,881,881,881,881,769,602,771,881,881,881,881,177,178,178,178,178,178,179,881,881,881,881,
      0,0,0,0,0,265,265,265,265,265,265,265,265,265,265,265,265,265,265,265,265,265,265,265,265,265,265,265,265,265,265,265,265,265,265,265,265,265,265,265,265,265,881,881,881,881,881,881,881,881,881,881,881,881,881,881,881,881,881,881,881,881,265,265,265,265,265,265,265,265,881,881,881,881,881,881,881,881,881,881,881,881,769,602,771,881,881,881,881,177,178,178,178,178,178,179,881,881,881,881,
      0,0,0,0,0,0,265,265,265,265,265,265,265,265,265,265,265,265,265,0,0,0,265,265,265,265,265,265,265,265,265,265,265,265,265,265,265,265,265,265,265,265,881,881,881,881,881,881,881,881,881,881,881,881,881,881,881,881,881,881,881,881,265,265,265,265,265,265,265,265,881,881,881,881,881,881,881,881,881,881,881,881,769,602,771,881,881,881,881,199,178,178,178,178,178,201,881,881,881,881,
      0,0,0,0,0,0,265,265,265,265,265,265,265,265,265,265,265,0,0,0,0,0,0,265,265,265,265,265,265,265,265,265,265,265,265,265,265,265,265,265,265,265,881,881,881,881,881,881,881,881,881,881,881,881,881,881,881,881,881,881,881,881,265,265,265,265,265,265,265,265,881,881,881,881,881,881,881,881,881,881,881,881,769,602,771,881,881,881,881,881,199,200,200,200,201,265,881,881,881,881,
      0,0,0,0,0,0,0,0,265,265,265,265,265,265,265,265,0,0,0,0,0,0,0,265,265,265,265,265,265,265,265,265,265,265,265,265,265,265,265,265,265,265,881,881,881,881,881,881,881,881,881,881,881,881,881,881,881,881,881,881,881,881,265,265,265,265,265,265,265,265,881,881,881,881,881,881,881,881,881,881,881,881,769,770,771,881,881,881,881,881,881,881,881,881,881,881,881,881,881,881,
      0,0,0,0,0,0,0,0,0,0,0,0,0,0,0,0,0,0,0,0,0,0,0,265,265,265,265,265,265,265,265,265,265,265,265,265,265,265,265,265,265,265,881,881,881,881,881,881,881,881,881,881,881,881,881,881,881,881,881,881,881,881,265,265,265,265,265,265,265,265,881,881,881,881,881,881,881,881,881,881,881,881,769,770,771,881,881,881,881,881,881,881,881,881,881,881,881,881,881,881,
      0,0,0,0,0,0,0,0,0,0,0,0,0,0,0,0,0,0,0,0,0,0,0,265,265,265,265,265,265,265,265,265,265,265,265,265,265,265,265,265,265,265,881,881,881,881,881,881,881,881,881,881,881,881,881,881,881,881,881,881,881,881,265,265,265,265,265,265,265,265,881,881,881,881,881,881,881,881,881,881,881,881,769,602,771,881,881,881,881,881,881,881,881,881,881,881,881,881,881,881,
      0,0,0,0,0,0,0,0,0,0,0,0,0,0,0,0,0,0,0,0,0,0,0,265,265,265,265,265,265,265,265,265,265,265,265,265,265,265,265,265,265,265,881,881,881,881,881,881,881,881,881,881,881,881,881,881,881,881,881,881,881,881,265,265,265,265,265,265,265,265,881,881,881,881,881,881,881,881,881,881,881,881,769,602,771,881,881,881,881,881,881,881,881,881,881,881,881,881,881,881,
      0,0,0,0,0,0,0,0,0,0,0,0,0,0,0,0,0,0,0,0,0,0,0,0,265,265,265,265,265,265,265,265,265,265,265,265,265,265,265,265,265,265,741,742,742,742,742,742,742,742,742,742,742,742,742,742,742,742,742,743,881,881,265,265,265,265,265,265,265,265,881,881,881,881,881,881,881,881,881,881,881,741,803,770,771,881,881,881,881,881,881,881,881,881,881,881,881,881,881,881,
      0,0,0,0,0,0,0,0,0,0,0,0,0,0,0,0,0,0,0,0,0,0,0,0,265,265,265,265,265,265,265,265,265,265,265,265,265,265,265,265,265,741,803,774,775,770,770,770,770,770,770,770,770,770,770,770,770,770,770,802,743,881,265,265,265,265,265,265,265,265,881,881,881,881,881,881,881,881,881,881,741,803,770,774,799,265,881,881,881,881,881,881,881,881,881,881,881,881,881,881,
      0,0,0,0,0,0,0,0,0,0,0,0,0,0,0,0,0,0,0,0,0,0,0,0,265,265,265,265,265,265,265,265,265,265,265,265,265,265,265,265,741,803,770,802,803,770,770,770,770,770,770,770,770,770,770,770,770,770,770,770,802,743,265,265,265,265,265,265,265,265,881,881,881,881,881,881,881,881,881,741,803,770,774,799,881,265,265,265,881,881,881,881,881,881,881,881,881,881,881,881
    </data>
  </layer>
  <layer id="3" name="decoration" width="100" height="20">
    <data encoding="csv">
      1123,1122,1123,1122,1123,1122,1123,1122,1123,1122,1123,1122,1123,1122,1123,1122,1123,1122,1123,1122,1123,1122,1123,1122,1123,1122,1123,1122,1146,1145,1146,1145,1146,1145,1146,1145,1146,1147,1148,1075,1076,1075,1076,1075,1076,1075,1076,1075,1076,1075,1076,1075,1076,1075,1076,1075,1076,1075,1076,1075,1076,1075,1076,1075,1076,1075,1076,1075,1076,1376,1377,1376,1377,1376,1377,1376,1377,1376,1377,1376,1377,1378,0,0,0,0,0,0,0,0,0,0,0,0,0,0,1328,1329,1328,1329,
      1122,1123,1122,1123,1122,1123,1122,1123,1122,1123,1122,1123,1122,1123,1122,1123,1122,1123,1122,1123,1122,1123,1122,1123,1122,1146,1147,1076,0,0,1051,1052,0,0,0,0,0,0,0,0,0,0,0,0,0,0,0,0,0,0,0,0,0,0,0,0,0,0,2281,2281,0,0,2281,0,0,0,2281,0,0,0,1378,245,0,0,0,0,1378,1378,245,0,0,0,0,612,0,0,0,0,0,0,0,0,0,0,0,0,0,0,1378,1352,
      1123,1122,1123,1122,1123,1122,1123,1122,1123,1122,1123,1122,1123,1122,1123,1122,1123,1122,1123,1122,1123,1122,1123,1122,1123,1099,245,0,0,0,1075,1076,0,0,0,0,0,0,0,0,0,0,0,0,0,0,0,0,0,0,0,0,0,0,0,0,0,1958,1895,1896,0,0,2281,0,0,0,2281,0,0,0,0,0,0,1315,0,0,0,1378,0,0,0,0,0,612,0,1378,0,0,0,0,0,0,0,0,0,0,0,0,0,1376,
      1122,1123,1122,1123,1122,1123,1122,1123,1122,1146,1147,1146,1147,1146,1147,1123,1122,1123,1122,1123,1122,1123,1122,1123,1122,1148,0,0,0,0,0,0,0,0,0,0,0,0,0,0,1582,1583,0,0,0,0,0,0,0,0,0,245,0,0,0,0,0,0,0,1925,0,0,0,0,0,0,0,0,0,2281,2281,0,0,1378,0,0,0,1378,1378,0,0,0,0,0,0,0,0,0,0,0,0,0,0,0,0,0,0,0,0,1352,
      1123,1122,1123,1122,1123,1122,1123,1122,1148,268,0,0,268,0,0,1145,1123,1122,1123,1122,1123,1122,1123,1122,1148,1051,1052,0,0,0,0,0,265,0,0,0,0,0,0,0,1615,1616,1617,1618,0,0,0,0,0,0,0,0,0,245,0,0,0,1077,1078,1925,0,0,2281,0,0,0,2281,0,0,0,0,0,0,1352,1353,0,0,0,1378,0,0,0,0,0,0,0,0,0,0,0,0,0,0,0,0,0,0,0,0,1376,
      1122,1123,1122,1123,1122,1123,1122,1148,268,0,0,0,0,268,0,0,1145,1123,1122,1123,1122,1123,1122,1123,1099,1075,1076,0,0,0,0,268,0,0,0,0,0,0,0,0,1648,1649,1650,1651,2146,0,0,0,0,0,245,0,0,0,0,0,0,0,0,1925,0,0,2281,0,0,0,2281,0,0,2281,2281,0,0,1376,1377,0,245,0,1378,0,0,0,1246,1246,1246,0,0,0,0,0,0,0,0,0,0,0,0,0,0,1352,
      1123,1122,1123,1122,1123,1122,1148,0,0,0,0,0,0,0,0,0,268,1145,1123,1122,1123,1122,1123,1122,1148,0,0,0,0,0,0,0,0,0,0,0,0,0,0,2144,1681,1682,1683,1684,2179,0,0,0,0,0,0,0,0,0,0,0,0,1077,1078,1925,0,0,0,1926,0,1928,0,0,0,0,0,0,0,1378,0,0,0,1378,0,0,0,0,0,0,0,0,0,0,0,0,0,0,0,0,0,0,0,0,0,1376,
      1122,1123,1122,1123,1122,1148,0,0,0,0,0,0,0,0,0,0,0,1378,1145,1146,1147,1146,1147,1148,0,0,0,0,0,0,0,0,0,0,0,0,0,0,0,0,0,0,0,0,0,0,0,0,0,0,0,0,0,0,0,0,0,0,0,1958,1893,1894,1895,1959,1960,1961,1893,1894,1896,0,0,0,1378,1378,0,0,0,1352,1353,0,0,245,0,0,0,0,0,0,0,0,0,0,0,0,0,0,0,0,0,1352,
      1123,1122,1123,1122,1123,1099,0,0,0,268,0,1499,1496,0,0,0,0,0,0,0,0,0,0,0,0,0,0,0,0,1097,1098,1099,1378,0,0,0,0,0,0,0,0,0,0,0,0,0,0,0,0,0,0,0,0,0,0,0,0,0,0,0,0,0,0,245,0,0,0,1269,1958,1893,1894,1895,1378,0,0,0,0,1376,1377,0,0,1378,0,0,0,0,0,0,0,0,0,0,0,0,0,0,0,0,0,1376,
      1122,1123,1122,1123,1122,1148,0,0,0,0,0,1497,1498,0,0,0,0,0,0,0,0,0,0,0,0,0,0,0,0,1121,1122,1123,1124,0,0,0,0,0,0,0,0,0,0,0,0,0,0,0,0,0,0,0,0,0,0,0,0,1378,0,0,0,0,0,0,1496,0,0,0,0,0,0,1269,1378,0,0,0,0,1378,0,0,0,1378,0,1496,0,0,0,0,0,0,0,0,0,0,0,0,0,0,0,1352,
      1123,1122,1123,1122,1123,1099,268,0,0,0,0,0,0,268,0,0,0,0,1098,1099,1098,1099,0,0,0,0,0,0,0,1145,1146,1147,1148,0,0,0,0,0,0,0,0,0,0,0,0,0,0,0,0,0,1496,0,0,0,1496,0,0,0,0,0,0,0,0,0,0,0,0,0,0,0,0,1352,1353,0,0,0,0,1378,1378,0,0,0,0,0,0,0,0,0,0,0,0,0,0,0,0,0,0,0,0,1376,
      1122,1123,1122,1123,1122,1123,1099,0,0,0,0,0,0,0,0,268,1378,1098,1122,1123,1122,1123,1099,0,268,0,0,0,0,0,0,0,0,0,0,0,268,0,0,0,0,0,0,0,0,0,0,0,0,0,0,0,0,0,0,0,0,1497,0,0,0,0,1498,0,0,0,0,0,0,0,0,1376,1377,0,0,0,0,1378,1378,0,0,0,0,0,0,0,0,0,0,0,0,0,0,0,0,0,0,0,0,1352,
      1123,1122,1123,1122,1123,1122,1123,1099,268,0,0,0,0,0,0,1378,1098,1122,1123,1122,1123,1122,1123,1099,0,0,0,0,0,0,0,0,0,0,0,0,0,0,0,0,0,0,0,0,0,245,0,0,0,0,0,0,0,0,0,1378,0,0,0,1496,0,0,0,0,1051,1052,0,0,0,0,0,1378,0,0,0,245,0,0,1378,1378,0,0,0,0,0,0,0,0,0,0,0,0,0,0,0,0,0,0,0,1376,
      1122,1123,1122,1123,1122,1123,1122,1123,1099,1098,1099,1098,1099,1098,1099,1098,1122,1123,1122,1123,1122,1123,1122,1148,0,0,0,0,0,0,0,0,0,0,0,0,0,0,0,0,0,0,0,0,0,0,0,0,0,0,0,0,0,0,0,0,0,0,0,0,0,0,0,0,1075,1076,1378,0,0,0,245,1378,1378,0,0,0,0,0,0,0,0,0,0,0,0,0,0,0,0,0,0,0,0,0,0,0,0,0,0,1352,
      1123,1122,1123,1122,1123,1122,1123,1122,1123,1122,1123,1122,1123,1122,1123,1122,1123,1122,1123,1122,1123,1122,1123,1099,0,0,0,0,0,0,0,0,0,0,0,0,0,0,1051,1052,0,0,0,0,0,0,0,0,0,0,0,0,245,0,0,0,0,0,0,0,0,0,0,1051,1052,1352,1353,0,0,0,0,0,1378,245,0,0,0,0,0,0,0,0,0,0,0,0,0,0,0,0,0,0,0,0,0,0,0,0,0,1376,
      1122,1123,1122,1123,1122,1123,1122,1123,1122,1123,1122,1123,1122,1123,1122,1123,1122,1123,1122,1123,1122,1123,1122,1148,1051,1052,0,0,0,0,268,0,0,0,0,0,0,0,1075,1076,0,0,0,0,0,0,0,0,0,0,0,0,0,0,0,0,0,0,0,0,0,0,0,1075,1076,1376,1377,0,0,0,0,0,0,1378,1378,1352,1353,0,0,0,0,245,0,612,0,1378,0,0,0,0,0,0,0,0,0,0,0,0,0,1352,
      1123,1122,1123,1122,1123,1122,1123,1122,1123,1122,1123,1122,1123,1122,1123,1122,1123,1122,1123,1122,1123,1122,1123,1099,1075,1076,0,0,0,0,0,268,0,0,0,0,0,0,0,0,0,0,0,0,0,0,0,0,0,0,245,0,0,0,0,0,0,0,0,0,0,0,0,0,0,0,1378,1378,0,0,0,0,0,0,245,1376,1377,1378,0,0,0,1378,0,0,0,1378,0,0,0,0,0,0,0,0,0,0,0,0,1378,1376,
      1122,1123,1122,1123,1122,1123,1122,1123,1122,1123,1122,1123,1122,1123,1122,1123,1122,1123,1122,1123,1122,1123,1122,1123,1099,1378,0,0,0,0,0,0,0,0,0,0,0,0,0,0,0,245,0,0,0,0,912,0,0,0,0,0,0,0,0,0,0,0,0,0,245,0,0,0,0,245,1378,1352,1353,0,0,0,0,0,0,0,0,0,1378,0,0,0,0,0,0,1306,1307,1308,1309,0,0,0,0,0,0,0,0,1306,1307,1308,
      1123,1122,1123,1122,1123,1122,1123,1122,1123,1122,1123,1122,1123,1122,1123,1122,1123,1122,1123,1122,1123,1122,1123,1122,1148,1051,1052,245,0,0,0,0,0,0,0,0,0,0,0,0,245,0,0,0,0,0,968,0,0,0,0,696,0,0,0,0,0,0,0,0,0,0,0,0,245,245,245,1376,1377,245,0,0,0,0,0,0,0,245,1378,1378,0,0,1496,0,0,1330,1331,1332,1333,0,0,0,0,0,0,0,0,1330,1331,1332,
      1122,1123,1122,1123,1122,1123,1122,1123,1122,1123,1122,1123,1122,1123,1122,1123,1122,1123,1122,1123,1122,1123,1122,1123,1099,1075,1123,1099,1098,1099,1098,1099,1098,1099,1098,1099,1098,1099,1098,1099,0,0,0,0,0,0,0,0,0,0,0,0,0,0,0,0,0,668,668,0,0,0,1352,1353,1352,1353,1352,1353,1352,1353,1352,1353,1352,1353,1352,1353,1352,1353,1378,0,0,1496,0,0,1378,1354,1355,1356,1357,1352,1353,1352,1353,1352,1353,1352,1353,1354,1355,1356
    </data>
  </layer>
  <layer id="5" name="decoration_2" width="100" height="20">
    <data encoding="csv">
      0,0,0,0,0,0,0,0,0,0,0,0,0,0,0,0,0,0,0,0,0,0,0,0,0,0,0,0,0,0,0,0,0,0,0,0,0,0,0,0,0,0,0,0,0,0,0,0,0,0,0,0,0,0,0,0,1053,1054,0,0,0,0,0,0,0,0,0,0,0,0,0,0,0,0,0,0,0,0,0,0,0,0,0,0,0,0,0,0,0,0,0,0,0,0,0,0,0,0,0,0,
      0,0,0,0,0,0,0,0,0,0,0,0,0,0,0,0,0,0,0,0,0,0,0,0,0,0,0,0,0,0,0,0,0,0,0,0,0,0,0,0,0,0,0,0,0,0,0,0,0,0,0,0,0,0,0,0,1077,1078,0,0,0,0,0,0,0,0,0,0,0,0,0,0,0,0,0,0,0,0,0,0,0,0,0,0,0,0,0,0,0,0,0,0,0,0,0,0,0,0,0,0,
      0,0,0,0,0,0,0,0,0,0,0,0,0,0,0,0,0,0,0,0,0,0,0,0,0,0,0,0,0,0,0,0,0,0,0,0,0,0,0,0,0,0,0,0,0,0,0,0,0,0,0,0,0,0,0,0,0,0,0,0,0,0,0,0,0,0,0,0,0,0,0,0,0,0,0,0,0,0,0,0,0,0,0,0,0,0,0,0,0,0,0,0,0,0,0,0,0,0,0,0,
      0,0,0,0,0,0,0,0,0,0,0,0,0,0,0,0,0,0,0,0,0,0,0,0,0,0,0,0,0,0,0,0,0,0,0,0,0,0,0,0,0,0,0,0,0,0,0,0,0,0,0,0,0,0,0,0,0,0,0,0,0,0,0,0,0,0,0,0,0,0,0,0,0,0,0,0,0,0,0,0,0,0,0,0,0,0,0,0,0,0,0,0,0,0,0,0,0,0,0,0,
      0,0,0,0,0,0,0,0,0,0,0,0,0,0,0,0,0,0,0,0,0,0,0,0,0,0,0,0,0,0,0,0,0,0,0,0,0,0,0,0,0,0,0,0,0,0,0,0,0,0,0,0,0,0,0,0,0,0,0,0,0,0,0,0,0,0,0,0,0,0,0,0,0,0,0,0,0,0,0,0,0,0,0,0,0,0,0,0,0,0,0,0,0,0,0,0,0,0,0,0,
      0,0,0,0,0,0,0,0,0,0,0,0,0,0,0,0,0,0,0,0,0,0,0,0,0,0,0,0,0,0,0,0,0,0,0,0,0,0,0,0,0,0,0,0,0,0,0,0,0,0,0,0,0,0,0,0,0,0,0,0,0,0,0,0,0,0,0,0,0,0,0,0,0,0,0,0,0,0,0,0,0,0,0,0,0,0,0,0,0,0,0,0,0,0,0,0,0,0,0,0,
      0,0,0,0,0,0,0,0,0,0,0,0,0,0,0,0,0,0,0,0,0,0,0,0,0,0,0,0,0,0,0,0,0,0,0,0,0,0,0,0,0,1660,0,0,0,0,0,0,0,0,0,0,0,0,0,0,0,0,0,0,0,0,0,0,0,0,0,0,0,0,0,0,0,0,0,0,0,0,0,0,0,0,0,0,0,0,0,0,0,0,0,0,0,0,0,0,0,0,0,0,
      0,0,0,0,0,0,0,0,0,0,0,0,0,0,0,0,0,0,0,0,0,0,0,0,0,0,0,0,0,0,0,0,0,0,0,0,0,0,0,0,0,0,0,0,0,0,0,0,0,0,0,0,0,0,0,0,0,0,0,0,0,0,0,0,0,0,0,0,0,0,0,0,0,0,0,0,0,0,0,0,0,0,0,0,0,0,0,0,0,0,0,0,0,0,0,0,0,0,0,0,
      0,0,0,0,0,0,0,0,0,0,0,0,0,0,0,0,0,0,0,0,0,0,0,0,0,0,0,0,0,0,0,0,0,0,0,0,0,0,0,0,0,0,0,0,0,0,0,0,0,0,0,0,0,0,0,0,0,0,0,0,0,0,0,0,0,0,0,0,0,0,0,0,0,0,0,0,0,0,0,0,0,0,0,0,0,0,0,0,0,0,0,0,0,0,0,0,0,0,0,0,
      0,0,0,0,0,0,0,0,0,0,0,0,0,0,0,0,0,0,0,0,0,0,0,0,0,0,0,0,0,0,0,0,0,0,0,0,0,0,0,0,0,0,0,0,0,0,0,0,0,0,0,0,0,0,0,0,0,0,0,0,0,0,0,0,0,0,0,0,0,0,0,0,0,0,0,0,0,0,0,0,0,0,0,0,0,0,0,0,0,0,0,0,0,0,0,0,0,0,0,0,
      0,0,0,0,0,0,0,0,0,0,0,0,0,0,0,0,0,0,0,0,0,0,0,0,0,0,0,0,0,0,0,0,0,0,0,0,0,0,0,0,0,0,0,0,0,0,0,0,0,0,0,0,0,0,0,0,0,0,0,0,0,0,0,0,0,0,0,0,0,0,0,0,0,0,0,0,0,0,0,0,0,0,0,0,0,0,0,0,0,0,0,0,0,0,0,0,0,0,0,0,
      0,0,0,0,0,0,0,0,0,0,0,0,0,0,0,0,0,0,0,0,0,0,0,0,0,0,0,0,0,0,0,0,0,0,0,0,0,0,0,0,0,0,0,0,0,0,0,0,0,0,0,0,0,0,0,0,0,0,0,0,0,0,0,0,0,0,0,0,0,0,0,0,0,0,0,0,0,0,0,0,0,0,0,0,0,0,0,0,0,0,0,0,0,0,0,0,0,0,0,0,
      0,0,0,0,0,0,0,0,0,0,0,0,0,0,0,0,0,0,0,0,0,0,0,0,0,0,0,0,0,0,0,0,0,0,0,0,0,0,0,0,0,0,0,0,0,0,0,0,0,0,0,0,0,0,0,0,0,0,0,0,0,0,0,0,0,0,0,0,0,0,0,0,0,0,0,0,0,0,0,0,0,0,0,0,0,0,0,0,0,0,0,0,0,0,0,0,0,0,0,0,
      0,0,0,0,0,0,0,0,0,0,0,0,0,0,0,0,0,0,0,0,0,0,0,0,0,0,0,0,0,0,0,0,0,0,0,0,0,0,0,0,0,0,0,0,0,0,0,0,0,0,0,0,0,0,0,0,0,0,0,0,0,0,0,0,0,0,0,0,0,0,0,0,0,0,0,0,0,0,0,0,0,0,0,0,0,0,0,0,0,0,0,0,0,0,0,0,0,0,0,0,
      0,0,0,0,0,0,0,0,0,0,0,0,0,0,0,0,0,0,0,0,0,0,0,0,0,0,0,0,0,0,0,0,0,0,0,0,0,0,0,0,0,0,0,0,0,0,0,0,0,0,0,0,0,0,0,0,0,0,0,0,0,0,0,0,0,0,0,0,0,0,0,0,0,0,0,0,0,0,0,0,0,0,0,0,0,0,0,0,0,0,0,0,0,0,0,0,0,0,0,0,
      0,0,0,0,0,0,0,0,0,0,0,0,0,0,0,0,0,0,0,0,0,0,0,0,0,0,0,0,0,0,0,0,0,0,0,0,0,0,0,0,0,0,0,0,0,0,0,0,0,0,0,0,0,0,0,0,0,0,0,0,0,0,0,0,0,0,0,0,0,0,0,0,0,0,0,0,0,0,0,0,0,0,0,0,0,0,0,0,0,0,0,0,0,0,0,0,0,0,0,0,
      0,0,0,0,0,0,0,0,0,0,0,0,0,0,0,0,0,0,0,0,0,0,0,0,0,0,0,0,0,0,0,0,0,0,0,0,0,0,0,0,0,0,0,0,0,0,0,0,0,0,0,0,0,0,0,0,0,0,0,0,0,0,0,0,0,0,0,0,0,0,0,0,0,0,0,0,0,0,0,0,0,0,0,0,0,0,0,0,0,0,0,0,0,0,0,0,0,0,0,0,
      0,0,0,0,0,0,0,0,0,0,0,0,0,0,0,0,0,0,0,0,0,0,0,0,0,0,0,0,0,0,0,0,0,0,0,0,0,0,0,0,0,0,0,0,0,0,0,0,0,0,0,0,0,0,0,0,0,0,0,0,0,0,0,0,0,0,0,0,0,0,0,0,0,0,0,0,0,0,0,0,0,0,0,0,0,0,0,0,0,0,0,0,0,0,0,0,0,0,0,0,
      0,0,0,0,0,0,0,0,0,0,0,0,0,0,0,0,0,0,0,0,0,0,0,0,0,0,0,0,0,0,0,0,0,0,0,0,0,0,0,0,0,0,0,0,0,0,0,0,0,0,0,0,0,0,0,0,0,0,0,0,0,0,0,0,0,0,0,0,0,0,0,0,0,0,0,0,0,0,0,0,0,0,0,0,0,0,0,0,0,0,0,0,0,0,0,0,0,0,0,0,
      0,0,0,0,0,0,0,0,0,0,0,0,0,0,0,0,0,0,0,0,0,0,0,0,0,0,0,0,0,0,0,0,0,0,0,0,0,0,0,0,0,0,0,0,0,0,0,0,0,0,0,0,0,0,0,0,0,0,0,0,0,0,0,0,0,0,0,0,0,0,0,0,0,0,0,0,0,0,0,0,0,0,0,0,0,0,0,0,0,0,0,0,0,0,0,0,0,0,0,0
    </data>
  </layer>
  <layer id="6" name="ceil" width="100" height="20">
    <data encoding="csv">
      0,0,0,0,0,0,0,0,0,0,0,0,0,0,0,0,0,0,0,0,0,0,0,0,0,0,0,0,0,0,0,0,0,0,0,0,0,0,0,0,0,0,0,0,0,0,0,0,0,0,0,0,0,0,0,0,0,0,0,0,0,0,0,0,0,0,0,0,0,0,0,0,0,0,0,0,0,0,0,0,0,0,0,0,0,0,0,0,0,0,0,0,0,0,0,0,0,0,0,0,
      0,0,0,0,0,0,0,0,0,0,0,0,0,0,0,0,0,0,0,0,0,0,0,0,0,0,0,0,0,0,0,0,0,0,0,0,0,0,0,0,0,0,0,0,0,0,0,0,0,0,0,0,0,0,0,0,0,0,0,0,0,0,0,0,0,0,0,0,0,0,0,0,0,0,0,0,0,0,0,0,0,0,0,0,0,0,0,0,0,0,0,0,0,0,0,0,0,0,0,0,
      0,0,0,0,0,0,0,0,0,0,0,0,0,0,0,0,0,0,0,0,0,0,0,0,0,0,0,0,0,0,0,0,0,0,0,0,0,0,0,0,0,0,0,0,0,0,0,0,0,0,0,0,0,0,0,0,0,0,0,0,0,0,0,0,0,0,0,0,0,0,0,0,0,0,0,0,0,0,0,0,0,0,0,0,0,0,0,0,0,0,0,0,0,0,0,0,0,0,0,0,
      0,0,0,0,0,0,0,0,0,0,0,0,0,0,0,0,0,0,0,0,0,0,0,0,0,0,0,0,0,0,0,0,0,0,0,0,0,0,0,0,0,0,1584,1585,0,0,0,0,0,0,0,0,0,0,0,0,0,1053,1054,0,0,0,0,0,0,0,0,0,0,0,0,0,0,0,0,0,0,0,0,0,0,0,0,0,0,0,0,0,0,0,0,0,0,0,0,0,0,0,0,0,
      0,0,0,0,0,0,0,0,0,0,0,0,0,0,0,0,0,0,0,0,0,0,0,0,0,0,0,0,0,0,0,0,0,0,0,0,0,0,0,0,0,0,0,0,0,0,0,0,0,0,0,0,0,0,0,0,0,0,0,0,0,0,0,0,0,0,0,0,0,0,0,0,0,0,0,0,0,0,0,0,0,0,0,0,0,0,0,0,0,0,0,0,0,0,0,0,0,0,0,0,
      0,0,0,0,0,0,0,0,0,0,0,0,0,0,0,0,0,0,0,0,0,0,0,0,0,0,0,0,0,0,0,0,0,0,0,0,0,0,0,0,0,0,0,0,0,0,0,0,0,0,0,0,0,0,0,0,0,1053,1054,0,0,0,0,0,0,0,0,0,0,0,0,0,0,0,0,0,0,0,0,0,0,0,0,0,0,0,0,0,0,0,0,0,0,0,0,0,0,0,0,0,
      0,0,0,0,0,0,0,0,0,0,0,0,0,0,0,0,0,0,0,0,0,0,0,0,0,0,0,0,0,0,0,0,0,0,0,0,0,0,0,0,0,0,0,0,0,0,0,0,0,0,0,0,0,0,0,0,0,0,0,0,0,0,0,0,1927,0,0,0,0,0,0,0,0,0,0,0,0,0,0,0,0,0,0,0,0,0,0,0,0,0,0,0,0,0,0,0,0,0,0,0,
      0,0,0,0,0,0,0,0,0,0,0,0,0,0,0,0,0,0,0,0,0,0,0,0,0,0,0,0,0,0,0,0,0,0,0,0,0,0,0,0,0,0,0,0,0,0,0,0,0,0,0,0,0,0,0,0,0,0,0,0,0,0,0,0,0,0,0,0,0,0,0,0,0,0,0,0,0,0,0,0,0,0,0,0,0,0,0,0,0,0,0,0,0,0,0,0,0,0,0,0,
      0,0,0,0,0,0,0,0,0,0,0,0,0,0,0,0,0,0,0,0,0,0,0,0,0,0,0,0,0,0,0,0,0,0,0,0,0,0,0,0,0,0,0,0,0,0,0,0,0,0,0,0,0,0,0,0,0,0,0,0,0,0,0,0,0,0,0,0,0,0,0,0,0,0,0,0,0,0,0,0,0,0,0,0,0,0,0,0,0,0,0,0,0,0,0,0,0,0,0,0,
      0,0,0,0,0,0,0,0,0,0,0,0,0,0,0,0,0,0,0,0,0,0,0,0,0,0,0,0,0,0,0,0,0,0,0,0,0,0,0,0,0,0,0,0,0,0,0,0,0,0,0,0,0,0,0,0,0,0,0,0,0,0,0,0,0,0,0,0,0,0,0,0,0,0,0,0,0,0,0,0,0,0,0,0,0,0,0,0,0,0,0,0,0,0,0,0,0,0,0,0,
      0,0,0,0,0,0,0,0,0,0,0,0,0,0,0,0,0,0,0,0,0,0,0,0,0,0,0,0,0,0,0,0,0,0,0,0,0,0,0,0,0,0,0,0,0,0,0,0,0,0,0,0,0,0,0,0,0,0,0,0,0,0,0,0,0,0,0,0,0,0,0,0,0,0,0,0,0,0,0,0,0,0,0,0,0,0,0,0,0,0,0,0,0,0,0,0,0,0,0,0,
      0,0,0,0,0,0,0,0,0,0,0,0,0,0,0,0,0,0,0,0,0,0,0,0,0,0,0,0,0,0,0,0,0,0,0,0,0,0,0,0,0,0,0,0,0,0,0,0,0,0,0,0,0,0,0,0,0,0,0,0,0,0,0,0,0,0,0,0,0,0,0,0,0,0,0,0,0,0,0,0,0,0,0,0,0,0,0,0,0,0,0,0,0,0,0,0,0,0,0,0,
      0,0,0,0,0,0,0,0,0,0,0,0,0,0,0,0,0,0,0,0,0,0,0,0,0,0,0,0,0,0,0,0,0,0,0,0,0,0,0,0,0,0,0,0,0,0,0,0,0,0,0,0,0,0,0,0,0,0,0,0,0,0,0,0,0,0,0,0,0,0,0,0,0,0,0,0,0,0,0,0,0,0,0,0,0,0,0,0,0,0,0,0,0,0,0,0,0,0,0,0,
      0,0,0,0,0,0,0,0,0,0,0,0,0,0,0,0,0,0,0,0,0,0,0,0,0,0,0,0,0,0,0,0,0,0,0,0,0,0,0,0,0,0,0,0,0,0,0,0,0,0,0,0,0,0,0,0,0,0,0,0,0,0,0,0,0,0,0,0,0,0,0,0,0,0,0,0,0,0,0,0,0,0,0,0,0,0,0,0,0,0,0,0,0,0,0,0,0,0,0,0,
      0,0,0,0,0,0,0,0,0,0,0,0,0,0,0,0,0,0,0,0,0,0,0,0,0,0,0,0,0,0,0,0,0,0,0,0,0,0,0,0,0,0,0,0,0,0,0,0,0,0,0,0,0,0,0,0,0,0,0,0,0,0,0,0,0,0,0,0,0,0,0,0,0,0,0,0,0,0,0,0,0,0,0,0,0,0,0,0,0,0,0,0,0,0,0,0,0,0,0,0,
      0,0,0,0,0,0,0,0,0,0,0,0,0,0,0,0,0,0,0,0,0,0,0,0,0,0,0,0,0,0,0,0,0,0,0,0,0,0,0,0,0,0,0,0,0,0,0,0,0,0,0,0,0,0,0,0,0,0,0,0,0,0,0,0,0,0,0,0,0,0,0,0,0,0,0,0,0,0,0,0,0,0,0,0,0,0,0,0,0,0,0,0,0,0,0,0,0,0,0,0,
      0,0,0,0,0,0,0,0,0,0,0,0,0,0,0,0,0,0,0,0,0,0,0,0,0,0,0,0,0,0,0,0,0,0,0,0,0,0,0,0,0,0,0,0,0,0,0,0,0,0,0,0,0,0,0,0,0,0,0,0,0,0,0,0,0,0,0,0,0,0,0,0,0,0,0,0,0,0,0,0,0,0,0,0,0,0,0,0,0,0,0,0,0,0,0,0,0,0,0,0,
      0,0,0,0,0,0,0,0,0,0,0,0,0,0,0,0,0,0,0,0,0,0,0,0,0,0,0,0,0,0,0,0,0,0,0,0,0,0,0,0,0,0,0,0,0,0,0,0,0,0,0,0,0,0,0,0,0,0,0,0,0,0,0,0,0,0,0,0,0,0,0,0,0,0,0,0,0,0,0,0,0,0,0,0,0,0,0,0,0,0,0,0,0,0,0,0,0,0,0,0,
      0,0,0,0,0,0,0,0,0,0,0,0,0,0,0,0,0,0,0,0,0,0,0,0,0,0,0,0,0,0,0,0,0,0,0,0,0,0,0,0,0,0,0,0,0,0,0,0,0,0,0,0,0,0,0,0,0,0,0,0,0,0,0,0,0,0,0,0,0,0,0,0,0,0,0,0,0,0,0,0,0,0,0,0,0,0,0,0,0,0,0,0,0,0,0,0,0,0,0,0,
      0,0,0,0,0,0,0,0,0,0,0,0,0,0,0,0,0,0,0,0,0,0,0,0,0,0,0,0,0,0,0,0,0,0,0,0,0,0,0,0,0,0,0,0,0,0,0,0,0,0,0,0,0,0,0,0,0,0,0,0,0,0,0,0,0,0,0,0,0,0,0,0,0,0,0,0,0,0,0,0,0,0,0,0,0,0,0,0,0,0,0,0,0,0,0,0,0,0,0,0
    </data>
  </layer>
</map>